src/helpers/heroicons/solid/cursor-arrow-ripple.svg

<svg width="24" height="24" viewBox="0 0 24 24" fill="none" xmlns="http://www.w3.org/2000/svg">
<path fill-rule="evenodd" clip-rule="evenodd" d="M17.3033 5.1967C14.3744 2.26777 9.62563 2.26777 6.6967 5.1967C3.76777 8.12563 3.76777 12.8744 6.6967 15.8033C6.98959 16.0962 6.98959 16.5711 6.6967 16.864C6.40381 17.1569 5.92893 17.1569 5.63604 16.864C2.12132 13.3492 2.12132 7.65076 5.63604 4.13604C9.15076 0.62132 14.8492 0.62132 18.364 4.13604C20.1211 5.89321 21 8.19775 21 10.4998C21 10.9141 20.6642 11.2498 20.25 11.2499C19.8358 11.2499 19.5 10.9141 19.5 10.4999C19.5 8.57933 18.7679 6.66128 17.3033 5.1967ZM15.182 7.31802C13.4246 5.56066 10.5754 5.56066 8.81802 7.31802C7.06066 9.07538 7.06066 11.9246 8.81802 13.682C9.11091 13.9749 9.11091 14.4497 8.81802 14.7426C8.52513 15.0355 8.05025 15.0355 7.75736 14.7426C5.41421 12.3995 5.41421 8.60051 7.75736 6.25736C10.1005 3.91421 13.8995 3.91421 16.2426 6.25736C17.414 7.42877 18 8.96558 18 10.4999C18 10.9141 17.6642 11.2499 17.25 11.2499C16.8358 11.2499 16.5 10.9142 16.5 10.4999C16.5 9.34715 16.0608 8.19683 15.182 7.31802ZM11.5484 8.63179C11.8602 8.54824 12.1905 8.67359 12.3684 8.94299L17.5955 16.8599C17.7627 17.113 17.7609 17.4419 17.591 17.6932C17.421 17.9445 17.1165 18.0687 16.8193 18.0079L14.722 17.5787L15.7668 21.4777C15.874 21.8778 15.6365 22.289 15.2364 22.3963C14.8363 22.5035 14.4251 22.266 14.3179 21.8659L13.2732 17.967L11.6717 19.3872C11.4447 19.5884 11.1189 19.6332 10.8461 19.5005C10.5733 19.3678 10.4073 19.0839 10.4254 18.7811L10.9939 9.3113C11.0132 8.98905 11.2366 8.71534 11.5484 8.63179Z" />
</svg>

<svg xmlns="http://www.w3.org/2000/svg" viewBox="0 0 24 24" fill="currentColor" aria-hidden="true" data-slot="icon">
  <path fill-rule="evenodd" d="M17.303 5.197A7.5 7.5 0 0 0 6.697 15.803a.75.75 0 0 1-1.061 1.061A9 9 0 1 1 21 10.5a.75.75 0 0 1-1.5 0c0-1.92-.732-3.839-2.197-5.303Zm-2.121 2.121a4.5 4.5 0 0 0-6.364 6.364.75.75 0 1 1-1.06 1.06A6 6 0 1 1 18 10.5a.75.75 0 0 1-1.5 0c0-1.153-.44-2.303-1.318-3.182Zm-3.634 1.314a.75.75 0 0 1 .82.311l5.228 7.917a.75.75 0 0 1-.777 1.148l-2.097-.43 1.045 3.9a.75.75 0 0 1-1.45.388l-1.044-3.899-1.601 1.42a.75.75 0 0 1-1.247-.606l.569-9.47a.75.75 0 0 1 .554-.68Z" clip-rule="evenodd"/>
</svg>
